src/images/app-icons/dark-theme/MaximoCycleCounts.svg

<svg xmlns="http://www.w3.org/2000/svg" viewBox="0 0 32 32"><defs><linearGradient id="MaximoCycleCounts_svg__a" x1="74.5" y1="-24.5" x2="84.5" y2="-24.5" gradientTransform="translate(-66.5 49.5)" gradientUnits="userSpaceOnUse"><stop offset=".001" stop-opacity="0"/><stop offset=".83"/></linearGradient><linearGradient id="MaximoCycleCounts_svg__c" y1="32" x2="32" gradientUnits="userSpaceOnUse"><stop offset=".1" stop-color="#be95ff"/><stop offset=".9" stop-color="#4589ff"/></linearGradient><mask id="MaximoCycleCounts_svg__b" x="0" y="0" width="32" height="32" maskUnits="userSpaceOnUse"><path d="M17 24H4V10h24v5h2v-5a2 2 0 00-2-2h-6V4a2 2 0 00-2-2h-8a2 2 0 00-2 2v4H4a2 2 0 00-2 2v14a2 2 0 002 2h13zM12 4h8v4h-8z" fill="#fff"/><path fill="url(#MaximoCycleCounts_svg__a)" d="M8 23h10v4H8z" data-name="Gradients (black)"/><path d="M27 12h4v4h-4z"/></mask></defs><g data-name="Layer 2"><g data-name="Dark theme icons"><g mask="url(#MaximoCycleCounts_svg__b)"><path fill="url(#MaximoCycleCounts_svg__c)" d="M0 0h32v32H0z"/></g><path d="M20 27h-2a2 2 0 01-2-2v-6a2 2 0 012-2h2a2 2 0 012 2v6a2 2 0 01-2 2zm-2-8v6h2v-6zM24 14v3h4v2h-4v2h4a2 2 0 002-2v-2a2 2 0 00-2-2h-2v-1zM30 30v-1a2 2 0 00-2-2h-2v-2h3v-2h-3a2 2 0 00-2 2v5h2v-1h2v1z" fill="#f4f4f4"/></g></g></svg>

<svg xmlns="http://www.w3.org/2000/svg" xmlns:xlink="http://www.w3.org/1999/xlink" viewBox="0 0 32 32"><defs><style>.cls-1{fill:#fff;}.cls-2{fill:url(#linear-gradient);}.cls-3{mask:url(#mask);}.cls-4{fill:url(#linear-gradient-2);}.cls-5{fill:#f4f4f4;}</style><linearGradient id="linear-gradient" x1="74.5" y1="-24.5" x2="84.5" y2="-24.5" gradientTransform="translate(-66.5 49.5)" gradientUnits="userSpaceOnUse"><stop offset="0.001" stop-opacity="0"/><stop offset="0.83"/></linearGradient><mask id="mask" x="0" y="0" width="32" height="32" maskUnits="userSpaceOnUse"><path class="cls-1" d="M17,24H4V10H28v5h2V10a2,2,0,0,0-2-2H22V4a2,2,0,0,0-2-2H12a2,2,0,0,0-2,2V8H4a2,2,0,0,0-2,2V24a2,2,0,0,0,2,2H17ZM12,4h8V8H12Z"/><g id="Gradients_black_" data-name="Gradients (black)"><rect class="cls-2" x="8" y="23" width="10" height="4"/></g><rect x="27" y="12" width="4" height="4"/></mask><linearGradient id="linear-gradient-2" y1="32" x2="32" gradientUnits="userSpaceOnUse"><stop offset="0.1" stop-color="#be95ff"/><stop offset="0.9" stop-color="#4589ff"/></linearGradient></defs><g id="Layer_2" data-name="Layer 2"><g id="Dark_theme_icons" data-name="Dark theme icons"><g class="cls-3"><rect class="cls-4" width="32" height="32"/></g><path class="cls-5" d="M20,27H18a2,2,0,0,1-2-2V19a2,2,0,0,1,2-2H20a2,2,0,0,1,2,2V25A2,2,0,0,1,20,27ZM18,19l0,6,2,0V19Z"/><path class="cls-5" d="M24,14v3h4v2H24v2h4a2,2,0,0,0,2-2V17a2,2,0,0,0-2-2H26V14Z"/><path class="cls-5" d="M30,30V29a2,2,0,0,0-2-2H26V25h3V23H26a2,2,0,0,0-2,2v5h2V29h2v1Z"/></g></g></svg>
